img/copy_icon.svg

<svg width="20" height="20" viewBox="0 0 20 20" fill="none" xmlns="http://www.w3.org/2000/svg">
<path d="M3.03086 15.5607H4.59696V16.966C4.59696 18.9577 5.63795 20 7.62782 20H16.9691C18.959 20 20 18.9577 20 16.966V7.46394C20 5.47231 18.959 4.42997 16.9691 4.42997H15.403V3.03397C15.403 1.04235 14.362 0 12.3722 0H3.03086C1.03178 0 0 1.04235 0 3.03397V12.5268C0 14.5277 1.03178 15.5607 3.03086 15.5607ZM3.15062 13.7087C2.30309 13.7087 1.83326 13.262 1.83326 12.3592V3.20149C1.83326 2.29874 2.30309 1.86133 3.15062 1.86133H12.2524C13.0907 1.86133 13.5698 2.29874 13.5698 3.20149V4.42997H7.62782C5.63795 4.42997 4.59696 5.47231 4.59696 7.46394V13.7087H3.15062ZM7.74758 18.1387C6.90005 18.1387 6.43943 17.6919 6.43943 16.7985V7.63146C6.43943 6.73802 6.90005 6.2913 7.74758 6.2913H16.8494C17.6969 6.2913 18.1667 6.73802 18.1667 7.63146V16.7985C18.1667 17.6919 17.6969 18.1387 16.8494 18.1387H7.74758Z" fill="#AAB8C6"/>
</svg>

<svg width="20" height="20" fill="none" xmlns="http://www.w3.org/2000/svg"><path d="M3.03 15.56h1.567v1.406c0 1.992 1.04 3.034 3.03 3.034h9.342C18.96 20 20 18.958 20 16.966V7.464c0-1.992-1.041-3.034-3.03-3.034h-1.567V3.034c0-1.992-1.041-3.034-3.03-3.034H3.03C1.03 0 0 1.042 0 3.034v9.493c0 2 1.032 3.034 3.03 3.034zm.12-1.851c-.847 0-1.317-.447-1.317-1.35V3.201c0-.902.47-1.34 1.318-1.34h9.101c.839 0 1.318.438 1.318 1.34V4.43H7.628c-1.99 0-3.031 1.042-3.031 3.034v6.245H3.151zm4.598 4.43c-.848 0-1.309-.447-1.309-1.34V7.63c0-.893.461-1.34 1.309-1.34h9.101c.848 0 1.318.447 1.318 1.34V16.8c0 .893-.47 1.34-1.318 1.34H7.748z" fill="#AAB8C6"/></svg>
